X: 3
T: Kitty's Rambles
R: jig
M: 6/8
L: 1/8
K: Dmix
|:FDD c2A|ded efg|fed cAG|FAF GFE|FDD c2A|ded efg|fed cAG|1Ad^c dAG:|2FAd d2^c|:dfa dfa|dfa afd|ceg ceg|ceg gfe|fdf ~g3|agf efg|fed cAG|1Ad^c d2^c:|2Ad^c dfg||:afd ded|Adf afd|gec cBc|Ece gfe|~f3 ~g3|aza efg|efd cAG|1Ad^c de/f/g:|1Ad^c dAG|


Tune 1843	Setting 15273

